X:1
T:[ID 2-8a]
T:[ID 2-8a]
T:Bezeichnung standardisiert: Menuett Menuet In dieser Quelle auch als: Menuetto \"Ahnlich in dieser Quelle: ID 8-89a;
T:Urheber unbekannt Datum in der hier transkribierten schriftlichen Quelle: 1767
C:Urheber unbekannt
C:Datum in der hier transkribierten schriftlichen Quelle: 1767
L:1/8
M:3/4
K:D
V:1 treble 
V:1
 A2 | g2 g2 g2 |{fg} a4 fd | ef gedc | d2 fd A2 | g2 g2 g2 |{fg} a4 fd |"^F" ef gedc | d4 :: fa | %10
 gecAGE | FAdf af | gecAGE | F4 A2 | g2 g2 g2 |{fg} a4 fd |"^F" ef | %17

